X: 1156
T: Irak Seyir
C: Şefik Gürmeriç
O: Turkey
F: http://compmusic.upf.edu/node/140
N: irak--seyir--sofyan--1--sefik_gurmeric
N: makam= irak
N: form= seyir
N: usul= sofyan = 4/4
M: 4/4
L: 1/16
K: C _2/4B ^3/4f  
Q: 1/4=60
%%MIDI tuningsystem comma53
A4 F2G2 A4 A4  | B2c2 B2A2 ABAG F4  | \
w:   |   | 
z4 E2F2 G4 A2_1/4B2  | A2G2 G2F2 F3E D4  | 
w:   |   | 
z4 D2^3/4C=B, C4 D4  | E2F2 G2AB AGFG A4  | \
w:   |   | 
z4 A2B2 A4 B4  | 
w:   | 
c2d2 c2B2 c4 d4  | z4 e2=f2 g2f2 e2d2  | \
w:   |   | 
c2d2 c2B2 c2BA A4  | 
w:   | 
z4 A2B2 c2d4c2  | c2B2 B2A2 AGFG A4  | \
w:   |   | 
z4 A2B2 c4 B2A2  | 
w:   | 
A2G2 G2^F2 F3^E D2E2  | ^F8 ^E2F2 GAGF  | ^F16  | |


